outputs/icons/file/downloading_round.svg

<svg xmlns="http://www.w3.org/2000/svg" width="1200" height="1200" fill="none"><g clip-path="url(#a)"><path fill="#000" d="M866.5 177.5c-47-30-99.5-52-156-65-31-7-60.5 17-60.5 49 0 22.5 15 43.5 37 48.5 45.5 10 88.5 28 126.5 52.5 19.5 12.5 44.5 8.5 61-8 22.5-22.5 19-60-8-77m172 372.5c32 0 56.5-29.5 49-60.5-13-56-35-108.5-65-156-17-27-55-30.5-77.5-8-16 16-20 41.5-8 61 24.5 38.5 42.5 81 52.5 126.5 5.5 22 26 37 49 37M945 874.5c22.5 22.5 60.5 19 77.5-7.5 30-47 52-99.5 65-155.5 7-31-17.5-60.5-49-60.5-22.5 0-43.5 15-48.5 37-10 45.5-28.5 88-52.5 126.5-12.5 18.5-8.5 44 7.5 60m-295 164c0 32 29.5 56.5 60.5 49 56-13 108.5-35 155.5-65 27-17 30.5-55 8-77.5-16-16-41.5-20-60.5-7.5C775.5 962 733 980 687 990c-22 5-37 25.5-37 48.5m0-438.5V400c0-27.5-22.5-50-50-50s-50 22.5-50 50v200h-79.5c-44.5 0-67 54-35.5 85.5L564.5 815c19.5 19.5 51 19.5 70.5 0l129.5-129.5C796 654 773.5 600 729 600zm-100 438.5c0 32-29.5 56.5-60.5 49.5-223-50.5-389.5-249.5-389.5-488s166.5-437.5 389.5-487.5c31-7 60.5 17 60.5 49 0 23-15.5 43.5-38 48.5-178.5 40-312 199.5-312 390s133.5 350 312 390c22.5 5 38 25.5 38 48.5"/></g><defs><clipPath id="a"><path fill="#fff" d="M0 0h1200v1200H0z"/></clipPath></defs></svg>

<svg width="1200" height="1200" viewBox="0 0 1200 1200" fill="none" xmlns="http://www.w3.org/2000/svg"><g clip-path="url(#clip0_238_2800)"><path d="M866.5 177.5C819.5 147.5 767 125.5 710.5 112.5C679.5 105.5 650 129.5 650 161.5C650 184 665 205 687 210C732.5 220 775.5 238 813.5 262.5C833 275 858 271 874.5 254.5C897 232 893.5 194.5 866.5 177.5ZM1038.5 550C1070.5 550 1095 520.5 1087.5 489.5C1074.5 433.5 1052.5 381 1022.5 333.5C1005.5 306.5 967.5 303 945 325.5C929 341.5 925 367 937 386.5C961.5 425 979.5 467.5 989.5 513C995 535 1015.5 550 1038.5 550ZM945 874.5C967.5 897 1005.5 893.5 1022.5 867C1052.5 820 1074.5 767.5 1087.5 711.5C1094.5 680.5 1070 651 1038.5 651C1016 651 995 666 990 688C980 733.5 961.5 776 937.5 814.5C925 833 929 858.5 945 874.5ZM650 1038.5C650 1070.5 679.5 1095 710.5 1087.5C766.5 1074.5 819 1052.5 866 1022.5C893 1005.5 896.5 967.5 874 945C858 929 832.5 925 813.5 937.5C775.5 962 733 980 687 990C665 995 650 1015.5 650 1038.5ZM650 600V400C650 372.5 627.5 350 600 350C572.5 350 550 372.5 550 400V600H470.5C426 600 403.5 654 435 685.5L564.5 815C584 834.5 615.5 834.5 635 815L764.5 685.5C796 654 773.5 600 729 600H650ZM550 1038.5C550 1070.5 520.5 1095 489.5 1088C266.5 1037.5 100 838.5 100 600C100 361.5 266.5 162.5 489.5 112.5C520.5 105.5 550 129.5 550 161.5C550 184.5 534.5 205 512 210C333.5 250 200 409.5 200 600C200 790.5 333.5 950 512 990C534.5 995 550 1015.5 550 1038.5Z" fill="#1D1E23"/></g><defs><clipPath id="clip0_238_2800"><path width="24" fill="white" d="M0 0H1200V1200H0V0z"/></clipPath></defs></svg>
